X:187
T: KOMM FREUDE SEI GESEGNET
N: F0326
O: Europa, Mitteleuropa, Deutschland
R: Jugend - Lied, Belehrung, Freude
M: 4/4
L: 1/8
K: Bb
B2 | f3de2c2 | d3cB2
d2 | c2dBA2G2 | F4z2
F2 | c3ed3f | f2e2c2
dB | G2ecB2A2 | Bcdef2
F2 | G2ecB2A2 | B4z2

@@@ Tune index: 5618
